FINK
CUT[ROTHE BAECKLE BLAU AEUGLE]
REG[Europa, Mitteleuropa, Deutschland]
KEY[F0207A 16  G 3/8]
MEL[-5-5  1_.-71_  2_6_55  4_-5_-7_  1_
    6_5_  4_-7_2_  3_6_5_  4_-5_-5_  1_0_ //] >>
FCT[Liebes - Lied]
